icons/glyph_pin_cloud_failed.svg

<svg width="150" height="150" viewBox="0 0 150 150" fill="none" xmlns="http://www.w3.org/2000/svg">
<line x1="27.8284" y1="42.5356" x2="103" y2="117.707" stroke="#EA5037" stroke-width="4" stroke-linecap="round"/>
<path fill-rule="evenodd" clip-rule="evenodd" d="M91.085 33.9004C91.5874 29.6691 91.8743 29.0054 93.2033 29C94.5874 28.9932 119.994 54.8518 119.72 55.9886C119.585 56.5534 117.631 57.3576 115.38 57.7762C111.311 58.5311 111.222 58.5986 101.218 68.5115L91.1509 78.487L90.7222 84.586C90.1456 92.8028 89.2411 92.8213 81.2026 84.7827L75.0184 78.5985L73.0454 80.581L68.2648 75.8003L70.2016 73.8635L63.97 67.2902C56.4759 59.3858 56.5687 58.5918 65.0415 58.1039L70.7902 57.7726L80.6961 47.8667L90.6026 37.9602L91.085 33.9004ZM61.1937 82.8714L59.7139 84.3512C51.1214 92.9437 49.0237 95.4051 48.1048 97.9697C47.4879 99.6919 47.1526 101.27 47.3589 101.476C47.5652 101.682 49.1821 101.333 50.9524 100.699C53.6321 99.7392 55.9113 97.7974 64.5943 89.0727L65.9913 87.669L61.1937 82.8714Z" fill="#EA5037"/>
<path fill-rule="evenodd" clip-rule="evenodd" d="M104 111.536H116.115C127.46 111.536 136.657 102.339 136.657 90.9942V88.7127C136.657 78.0935 127.692 69.6788 117.094 70.3497C116.946 70.3591 116.797 70.3703 116.649 70.3833C115.463 70.4873 114.292 70.706 113.151 71.0356C112.985 71.0835 112.82 71.1336 112.656 71.1861L112.656 71.104L112.657 71.0356C112.657 69.6966 112.54 68.3862 112.317 67.115C112.094 65.8505 111.767 64.6248 111.344 63.4483C110.461 64.213 109.411 65.1983 108.094 66.4734C108.461 67.9221 108.657 69.4505 108.657 71.0356L108.657 71.0657L108.656 71.1599L108.62 76.6751L113.874 74.9962C114.999 74.6366 116.166 74.4165 117.347 74.3417C125.641 73.8167 132.657 80.402 132.657 88.7127V90.9942C132.657 100.13 125.251 107.536 116.115 107.536H100L104 111.536ZM36.8616 58.5394C35.5975 61.1027 34.8293 63.9544 34.6825 66.9689L34.5343 70.0111L31.5623 70.6774C23.0073 72.5955 16.5566 80.4571 17.024 89.8163C17.5198 99.7422 25.7121 107.536 35.6504 107.536H85.8579L89.8579 111.536H35.6504C23.5805 111.536 13.6311 102.071 13.029 90.0158C12.4606 78.6349 20.3087 69.1012 30.6872 66.7743C30.8846 62.722 32.0279 58.9181 33.901 55.5788L36.8616 58.5394ZM43.2806 50.8162C46.87 48.128 51.3275 46.5356 56.1566 46.5356C61.7745 46.5356 66.8918 48.6893 70.7249 52.2229L73.5549 49.3929C68.9987 45.139 62.8817 42.5356 56.1566 42.5356C50.2218 42.5356 44.7605 44.5631 40.4276 47.9632L43.2806 50.8162Z" fill="#EA5037"/>
</svg>

<svg viewBox="0 0 150 150" xmlns="http://www.w3.org/2000/svg" fill-rule="evenodd" clip-rule="evenodd"><path d="M27.828 42.536L103 117.707"/><path d="M26.414 43.95l75.172 75.171a2 2 0 102.828-2.828L29.243 41.121a2.003 2.003 0 00-2.829 0 2.003 2.003 0 000 2.829zM91.085 33.9c.502-4.231.789-4.895 2.118-4.9 1.384-.007 26.791 25.852 26.517 26.989-.135.564-2.089 1.369-4.34 1.787-4.069.755-4.158.823-14.162 10.736l-10.067 9.975-.429 6.099c-.576 8.217-1.481 8.235-9.519.197l-6.185-6.184-1.973 1.982-4.78-4.781 1.937-1.936-6.232-6.574c-7.494-7.904-7.401-8.698 1.072-9.186l5.748-.331L90.603 37.96l.482-4.06zM61.194 82.871l-1.48 1.48c-8.593 8.593-10.69 11.054-11.609 13.619-.617 1.722-.952 3.3-.746 3.506.206.206 1.823-.143 3.593-.777 2.68-.96 4.959-2.902 13.642-11.626l1.397-1.404-4.797-4.798z"/><path d="M104 111.536h12.115c11.345 0 20.542-9.197 20.542-20.542v-2.281c0-10.619-8.965-19.034-19.563-18.363a18.361 18.361 0 00-4.438.836v-.082l.001-.068c0-1.339-.117-2.65-.34-3.921a22.29 22.29 0 00-.973-3.667c-.883.765-1.933 1.75-3.25 3.025.367 1.449.563 2.978.563 4.563v.03l-.001.094-.036 5.515 5.254-1.679a14.437 14.437 0 013.473-.654c8.294-.525 15.31 6.06 15.31 14.371v2.281c0 9.136-7.406 16.542-16.542 16.542H100l4 4zM36.862 58.539a21.346 21.346 0 00-2.179 8.43l-.149 3.042-2.972.666c-8.555 1.919-15.005 9.78-14.538 19.139.496 9.926 8.688 17.72 18.626 17.72h50.208l4 4H35.65c-12.069 0-22.019-9.465-22.621-21.52-.568-11.381 7.28-20.915 17.658-23.242a25.362 25.362 0 013.214-11.195l2.961 2.96zm6.419-7.723a21.406 21.406 0 0112.876-4.28 21.418 21.418 0 0114.568 5.687l2.83-2.83a25.409 25.409 0 00-17.398-6.857 25.39 25.39 0 00-15.729 5.427l2.853 2.853z"/></svg>
